public/icons/social-youtube.svg

<svg width="16" height="12" viewBox="0 0 16 12" fill="none" xmlns="http://www.w3.org/2000/svg">
<path fill-rule="evenodd" clip-rule="evenodd" d="M15.5267 3.07445C15.5267 3.07445 15.3757 2.01019 14.9126 1.54138C14.3255 0.92636 13.6671 0.923443 13.3653 0.887407C11.2041 0.731079 7.96226 0.731079 7.96226 0.731079H7.95539C7.95539 0.731079 4.71369 0.731079 2.55239 0.887407C2.25054 0.923443 1.59246 0.92636 1.00507 1.54138C0.541922 2.01019 0.391257 3.07445 0.391257 3.07445C0.391257 3.07445 0.236816 4.32421 0.236816 5.57398V6.74584C0.236816 7.99543 0.391257 9.24519 0.391257 9.24519C0.391257 9.24519 0.541922 10.3095 1.00507 10.7783C1.59246 11.3935 2.36414 11.3737 2.70786 11.4382C3.94355 11.5568 7.95882 11.5935 7.95882 11.5935C7.95882 11.5935 11.2041 11.5886 13.3653 11.4324C13.6671 11.3964 14.3255 11.3935 14.9126 10.7783C15.3757 10.3095 15.5267 9.24519 15.5267 9.24519C15.5267 9.24519 15.6808 7.99543 15.6808 6.74584V5.57398C15.6808 4.32421 15.5267 3.07445 15.5267 3.07445ZM6.36449 8.16548L6.3638 3.82623L10.5368 6.00332L6.36449 8.16548Z" fill="white"/>
</svg>

<svg width="16" height="12" fill="none" xmlns="http://www.w3.org/2000/svg"><path fill-rule="evenodd" clip-rule="evenodd" d="M15.527 3.074s-.151-1.064-.614-1.533c-.588-.615-1.246-.618-1.548-.654C11.205.731 7.962.731 7.962.731h-.007s-3.241 0-5.403.156c-.301.036-.96.04-1.547.654-.463.47-.614 1.533-.614 1.533s-.154 1.25-.154 2.5v1.172c0 1.25.154 2.5.154 2.5s.15 1.063.614 1.532c.587.615 1.36.596 1.703.66 1.236.119 5.25.155 5.25.155s3.246-.004 5.407-.16c.302-.037.96-.04 1.548-.655.463-.469.614-1.533.614-1.533s.154-1.25.154-2.5V5.575c0-1.25-.154-2.5-.154-2.5ZM6.364 8.165V3.826l4.173 2.177-4.173 2.162Z" fill="#fff"/></svg>
